X:1
T:Over the Top with Jesus
T:Over the Top with Jesus
T:Burton B. Bosworth
T:Burton B. Bosworth, 1918
T:Public Domain Courtesy of the Cyber Hymnal™
T:Public Domain Courtesy of the Cyber Hymnal™
C:Burton B. Bosworth
Z:Public Domain
Z:Courtesy of the Cyber Hymnal™
%%score ( 1 2 ) 3
L:1/8
Q:1/4=170
M:6/4
K:Db
V:1 treble 
V:2 treble 
V:3 bass 
V:1
 [FA]2 [FB]2 [FA]2 [DF]2 [DE]2 D2 | [DF]6 [DF]4 z2 | [FA]2 [FB]2 [FA]2 [DF]2 [DE]2 D2 | %3
w: 1.~Sol- diers are we in the|ar- my,|Fight- ing for Christ here be-|
w: 2.~Je- sus, our might- y com-|mand- er,|Leads on to vic- tory, I|
w: 3.~Wher- e’er He leads we will|fol- low,|Fol- low with hearts all a-|
w: 4.~En- list to- day for King|Je- sus,|Cour- age and loy- al- ty|
 [CG]6- [CG]4 z2 | [CG]2 [CF]2 [CG]2 [CE]2 [DF]2 [CG]2 | [DA]2 [D=G]2 [DA]2 [DF]4 [FA]2 | %6
w: low; *|We’ll push a- head with a|con- quer- ing tread, And|
w: know; *|Ex- ploits we’ll do if to|Je- sus we’re true, And|
w: glow; *|With love di- vine, break the|en- e- my’s line, As|
w: show; *|Take up your cross, count- ing|all else but dross, And|
 [FB]2 [Gc]2 [Ad]2 [Ge]4 [Fd]2 | [Fd]6- [Fd]4 z2 |:"^Refrain" [FA]2 [FB]2 [Fc]2 [Fd]4 [DF]2 | %9
w: o- ver the top will|go. *||
w: o- ver the top will|go. *||
w: o- ver the top we|go. *|O- ver the top with|
w: o- ver the top we’ll|go. *||
 [=EB]6 [FA]4 z2 |1 [FA]2 [FB]2 [Fc]2 [Fd]4 [FB]2 | [Gc]6- [Gc]4 z2 | %12
w: |||
w: |||
w: Je- sus,|O- ver the top we’ll|go; *|
w: |||
 [CG]2 [CA]2 [CB]2 [Gc]4 [Gd]2 | [Gd]6 [Gc]4 z2 | [GB]2 [Gc]2 [Gd]2 [Gc]4 [GB]2 | %15
w: |||
w: |||
w: Je- sus, our might- y|cap- tain,|Leads us a- gainst the|
w: |||
 [DF]6- [DF]4 z2 :|2 [FA]2 || [GB]6- [GB]4 z2 | [GB]2 [G=A]2 [GB]2 [Gd]2 [Gc]2 [GB]2 | %19
w: ||||
w: ||||
w: foe; *|we’ll|go; *|Vic- tory is sure if with|
w: ||||
 [FA]6 [Fd]4 z2 |"^riten." !>![FB]2 !>![Gc]2 !>![Ad]2 !>!!fermata![Ge]4 [Fd]2 | [Fd]6- [Fd]4 z2 |] %22
w: |||
w: |||
w: Je- sus|O- ver the top we|go. *|
w: |||
V:2
 x10 D2 | x12 | x10 D2 | x12 | x12 | x12 | x12 | x12 |: x12 | x12 |1 x12 | x12 | x12 | x12 | x12 | %15
 x12 :|2 x2 || x12 | x12 | x12 | x12 | x12 |] %22
V:3
 [D,D]2 [D,D]2 [D,D]2 [D,A,]2 [D,G,]2 [D,F,]2 | [D,A,]6 [D,A,]4 z2 | %2
 [D,D]2 [D,D]2 [D,D]2 [D,A,]2 [D,G,]2 [D,F,]2 | [A,,G,]6- [A,,G,]4 z2 | %4
 [A,,G,]2 [A,,A,]2 [A,,G,]2 [A,,G,]2 [A,,A,]2 [A,,E,]2 | [D,F,]2 [D,=E,]2 [D,F,]2 [D,A,]4 [D,D]2 | %6
 [D,D]2 [E,A,]2 [F,A,]2 [A,C]4 [D,A,]2 | [D,A,]6- [D,A,]4 z2 |: %8
 [D,A,]2 [D,A,]2 [D,A,]2 [D,A,]4 [D,A,]2 | [D,=G,]6 [D,A,]4 z2 |1 %10
 [D,A,]2 [D,A,]2 [D,A,]2 [D,A,]4 [D,A,]2 | [E,A,]6- [E,A,]4 z2 | %12
 [E,A,]2 [E,A,]2 [E,A,]2 [E,A,]4 [E,A,]2 | [E,A,]6 [E,A,]4 z2 | %14
 [A,C]2 [A,C]2 [A,C]2 [A,C]4 [A,C]2 | [D,A,]6- [D,A,]4 z2 :|2 [F,D]2 || [G,D]6- [G,D]4 z2 | %18
 [G,D]2 [G,C]2 [G,D]2 [G,B,]2 [G,C]2 [G,D]2 | [D,D]6 [D,A,]4 z2 | %20
 [D,A,]2 [E,A,]2 [F,A,]2 !fermata![A,C]4 [D,A,]2 | [D,A,]6- [D,A,]4 z2 |] %22

